packages/foundations/assets/icons/functional/images/file/download_16.svg

<svg width="16" height="16" viewBox="0 0 16 16" fill="none" xmlns="http://www.w3.org/2000/svg">
<g clip-path="url(#clip0_185_923)">
<path fill-rule="evenodd" clip-rule="evenodd" d="M12.8 9.60001C13.225 9.60001 13.6 9.95001 13.6 10.4V12C13.6 13.325 12.525 14.4 11.2 14.4H4.80002C3.47506 14.4 2.40002 13.325 2.40002 12V10.4C2.40002 9.95001 2.77506 9.60001 3.20002 9.60001C3.65002 9.60001 4.00002 9.95001 4.00002 10.4V12C4.00002 12.425 4.35002 12.8 4.80002 12.8H11.2C11.65 12.8 12 12.425 12 12V10.4C12 9.95001 12.35 9.60001 12.8 9.60001ZM8.00002 1.60001C8.45002 1.60001 8.80002 1.97505 8.80002 2.40001V7.67505L9.82498 6.65001C10 6.47505 10.15 6.40001 10.4 6.40001C10.85 6.40001 11.2 6.77505 11.2 7.20001C11.2 7.35001 11.15 7.55001 11.025 7.70001L8.57506 10.175C8.40002 10.325 8.22498 10.4 8.02498 10.4C7.82498 10.4 7.62498 10.325 7.45002 10.175L5.02498 7.77505C4.87506 7.62497 4.80002 7.42497 4.80002 7.22497C4.80002 6.75001 5.22498 6.40001 5.62498 6.40001C5.82498 6.40001 6.02498 6.47505 6.17506 6.65001L7.20002 7.67505V2.40001C7.20002 1.97505 7.55002 1.60001 8.00002 1.60001Z" fill="#1A1C1F"/>
</g>
<defs>
<clipPath id="clip0_185_923">
<rect width="16" height="16" fill="white"/>
</clipPath>
</defs>
</svg>

<svg xmlns="http://www.w3.org/2000/svg" width="16" height="16" fill="none"><g clip-path="url(#a)"><path fill="#1A1C1F" fill-rule="evenodd" d="M12.8 9.6c.425 0 .8.35.8.8V12a2.4 2.4 0 0 1-2.4 2.4H4.8A2.4 2.4 0 0 1 2.4 12v-1.6c0-.45.375-.8.8-.8.45 0 .8.35.8.8V12c0 .425.35.8.8.8h6.4c.45 0 .8-.375.8-.8v-1.6c0-.45.35-.8.8-.8M8 1.6c.45 0 .8.375.8.8v5.275L9.825 6.65c.175-.175.325-.25.575-.25.45 0 .8.375.8.8 0 .15-.05.35-.175.5l-2.45 2.475c-.175.15-.35.225-.55.225a.88.88 0 0 1-.575-.225l-2.425-2.4a.78.78 0 0 1-.225-.55c0-.475.425-.825.825-.825.2 0 .4.075.55.25L7.2 7.675V2.4c0-.425.35-.8.8-.8" clip-rule="evenodd"/></g><defs><clipPath id="a"><path fill="#fff" d="M0 0h16v16H0z"/></clipPath></defs></svg>
